X:1
T:Title
%%score { ( 1 3 ) | ( 2 4 ) }
L:1/8
Q:1/4=113
M:6/8
K:Eb
V:1 treble nm="Grand Piano"
V:3 treble 
V:2 bass 
V:4 bass 
V:1
 [Ec]2 [Ec] [D=B]2 [Ec] | [CG]3 [CA]3 | [FB]2 [FB] [F=A]2 [FB] | F6 | [_DG]2 [EG_d] [EG]2 [EGd] | %5
w: W.~Stillman~Martin * * *|||||
 [_DG]3 [EG_d]3 | [_DG]2 [EG_d] F2 [FGd] | [EAc]6 | [Ec]2 [Ec] [D=B]2 [Ec] | [CG]3 [CA]3 | %10
w: |||||
 B2 B =A2 B | [B,_DF]2 G A2 B | c2 f e2 c | A2 E A2 c | [_DGB]6 | [A,CEA]6 | c2 C D2 =E | F2 G A3 | %18
w: ||||||||
 B2 B, C2 D | E2 F G3 | [DF]2 [Ac] [GB]2 [FA] | [EG]3 [DF]3 | E6- | EEF GAB | %24
w: ||||||
 [Ec]2 [Ec] [D=B]2 [Ec] | [CG]3 [CA]3 | B2 B =A2 B | [B,_DF]2 G A2 B | c2 f e2 c | A2 E A2 c | %30
w: ||||||
 [_DGB]6 | [CEA]6 |] %32
w: ||
V:2
 A,,C,E, A,E,C, | A,,C,E, A,E,C, | _D,F,B, _DB,F, | z3 _D3 | E,G,B, _DB,G, | E,G,B, _DB,G, | %6
 E,G,B, _DB,G, | A,,C,E, A,E,C, | A,,C,E, A,E,C, | A,,C,E, A,E,C, | ._D3 .D3 | B,,2 G, A,2 B, | %12
 [CEA]2 [FAc] [EAc]2 [CEA] | .[CE]3 .[CE]3 | [E,,E,]6 | A,,6 | C2 C, D,2 =E, | F,2 G, A,3 | %18
 B,2 B,, C,2 D, | E,2 F, G,3 | [B,,B,]2 [B,,B,] [B,,B,]2 [B,,B,] | [B,,B,]3 [B,,A,]3 | [E,G,]6- | %23
 [E,G,]E,F, G,A,B, | A,,C,E, A,E,C, | A,,C,E, A,E,C, | ._D3 .D3 | B,,2 G, A,2 B, | %28
 [CEA]2 [FAc] [EAc]2 [CEA] | .[CE]3 .[CE]3 | [E,,E,]6 | [A,,A,]6 |] %32
V:3
 x6 | x6 | x6 | _D3 z3 | x6 | x6 | x6 | x6 | x6 | x6 | x6 | x6 | x6 | x6 | x6 | x6 | x6 | x6 | x6 | %19
 x6 | x6 | x6 | x6 | x6 | x6 | x6 | x6 | x6 | x6 | x6 | x6 | x6 |] %32
V:4
 x6 | x6 | x6 | B,,F,B, z B,F, | x6 | x6 | x6 | x6 | x6 | x6 | %10
 [_D,F,]2- [D,F,_D] [D,F,]2- [D,F,D] | x6 | x6 | [E,A,]2- [E,A,C] [E,A,]2- [E,A,EA] | x6 | x6 | %16
 x6 | x6 | x6 | x6 | x6 | x6 | x6 | x6 | x6 | x6 | [_D,F,]2- [D,F,_D] [D,F,]2- [D,F,D] | x6 | x6 | %29
 [E,A,]2- [E,A,C] [E,B,]2- [E,B,EA] | x6 | x6 |] %32

